svg/400/sharp/dns-fill.svg

<svg xmlns="http://www.w3.org/2000/svg" width="48" height="48" viewBox="0 -960 960 960"><path d="M287.118-617Q308-617 322.5-631.618q14.5-14.617 14.5-35.5Q337-688 322.382-702.5q-14.617-14.5-35.5-14.5Q266-717 251.5-702.382q-14.5 14.617-14.5 35.5Q237-646 251.618-631.5q14.617 14.5 35.5 14.5Zm0 414Q308-203 322.5-217.618q14.5-14.617 14.5-35.5Q337-274 322.382-288.5q-14.617-14.5-35.5-14.5Q266-303 251.5-288.382q-14.5 14.617-14.5 35.5Q237-232 251.618-217.5q14.617 14.5 35.5 14.5ZM120-494v-345h720v345H120Zm0 414v-346h720v346H120Z"/></svg>

<svg xmlns="http://www.w3.org/2000/svg" width="48" height="48" viewBox="0 -960 960 960"><path d="M287.12-617q20.88 0 35.38-14.62 14.5-14.62 14.5-35.5 0-20.88-14.62-35.38-14.62-14.5-35.5-14.5-20.88 0-35.38 14.62-14.5 14.62-14.5 35.5 0 20.88 14.62 35.38 14.62 14.5 35.5 14.5Zm0 414q20.88 0 35.38-14.62 14.5-14.62 14.5-35.5 0-20.88-14.62-35.38-14.62-14.5-35.5-14.5-20.88 0-35.38 14.62-14.5 14.62-14.5 35.5 0 20.88 14.62 35.38 14.62 14.5 35.5 14.5ZM120-494v-345h720v345H120Zm0 414v-346h720v346H120Z"/></svg>
